!!!id: BC040
!!!page: 52 
!!!COM: (Folklore)
!!!LYR: (Anonyme)
!!!PTL@@FR: Les 100 plus belles chansons
!!!OTL@@FR: Veillée rustique
!!!PUB: La Bonne Chanson, inc.
!!!YEM: On ne peut reproduire, enregistrer ou diffuser en tout ou en partie le présent ouvrage, sous quelque procédé que ce soit, électronique, mécanique, photographique, sonore, magnétique ou autre, sans avoir obtenu au préalable l'autorisation écrite de l'éditrice.
!!!PDT: 2011
!!!SMA: 2012 Bibliothèque nationale du Québec; Biblothèque nationale du Canada
!!!AGN-Laforte: Strophique (avec refrain), 9:1(6+6)
!!!AGN-type: Rustique?
!!!AGN-rime: none
**kern	**text	**text	**text	**text	**text	**text	**text	**text	**text
*clefG2	*	*	*	*	*	*	*	*	*
*k[f#]	*	*	*	*	*	*	*	*	*
*D:	*	*	*	*	*	*	*	*	*
!!!OMD:Avec entrain
*M2/4	*	*	*	*	*	*	*	*	*
*	*pline:1	*pline:2	*pline:3	*pline:4	*pline:5	*pline:6	*pline:7	*pline:8	*pline:9
*	*v:1	*v:2	*v:3	*v:4	*v:5	*v:6	*v:7	*v:8	*v:9
!!LO:TX:a:t=Solo - reprise par le Choeur
4g	Mon	C'est	Mais	Quand	Ils	Quand	Et	Et	Et
=1	=1	=1	=1	=1	=1	=1	=1	=1	=1
8d	père	pas	c'est	la	en-	tout	l'on	moi,	c'est
8g	aus-	l'af-	l'af-	mai-	-trent	l'monde	parl'	j'les	comm'
8b	-si	-fair'	-fair'	-son	quatre	est	d'a-	ac-	ça
8g	ma	des	des	est	à	en	-mou-	-com-	qu'ça
=2	=2	=2	=2	=2	=2	=2	=2	=2	=2
8a	mè-	fil-	fil-	pro-	qua-	pla-	-ret-	-pa-	s'pas-
8f#	re	-les	-les	-pre,	-tre,	-ce,	-te,	-gne	-se,
4a	n'a-	d'al-	de	tous	en	on	c'est	sur	du
=3	=3	=3	=3	=3	=3	=3	=3	=3	=3
8f#	-vient	-ler	"ba-	les	frap-	frise	tou-	mon	moins
8a	que	voir	-lier"	gar-	-pant	un	-jours	ac-	dans
8cc	moi	les	la	-çons	du	ri-	la	-cor-	notr'
8b	d'en-	gar-	mai-	y	ta-	-go-	sai-	-dé-	can-
=4	=4	=4	=4	=4	=4	=4	=4	=4	=4
4g	-fant,	-çons,	-son,	vont,	-lon,	-don,	-son,	-on,	-ton,
!!LO:PB:g=original
=:|	=:|	=:|	=:|	=:|	=:|	=:|	=:|	=:|	=:|
8r	.	.	.	.	.	.	.	.	.
*	*bis	*bis	*bis	*bis	*bis	*bis	*bis	*bis	*bis
*	*pline:1b7	*pline:2b7	*pline:3b7	*pline:4b7	*pline:5b7	*pline:6b7	*pline:7b7	*pline:8b7	*pline:9b7
!!LO:TX:a:t=Solo
8b	N'a-	D'al-	De	Tous	En	On	C'est	Sur	Du
=5	=5	=5	=5	=5	=5	=5	=5	=5	=5
8.b	-vient	-ler	"ba-	les	frap-	frise	tou-	mon	moins
16a	que	voir	-lier"	gar-	-pant	un	-jours	ac-	dans
8b	moi	les	la	-çons	du	ri-	la	-cor-	notr'
8cc	d'en-	gar-	mai-	y	ta-	-go-	sai-	-dé-	can-
=6	=6	=6	=6	=6	=6	=6	=6	=6	=6
8.dd	-fant,	-çons,	-son,	vont,	-lon,	-don,	-son,	-on,	-ton,
*	*Xbis	*Xbis	*Xbis	*Xbis	*Xbis	*Xbis	*Xbis	*Xbis	*Xbis
*	*refrain	*	*	*	*	*	*	*	*
16dd	La	.	.	.	.	.	.	.	.
8b	des-	.	.	.	.	.	.	.	.
8g	-ti-	.	.	.	.	.	.	.	.
=7	=7	=7	=7	=7	=7	=7	=7	=7	=7
8.dd	née,	.	.	.	.	.	.	.	.
16dd	la	.	.	.	.	.	.	.	.
8b	rose	.	.	.	.	.	.	.	.
8g	au	.	.	.	.	.	.	.	.
=8	=8	=8	=8	=8	=8	=8	=8	=8	=8
4a	bois,	.	.	.	.	.	.	.	.
*	*Xrefrain	*	*	*	*	*	*	*	*
!!LO:PB:g=original
=||	=||	=||	=||	=||	=||	=||	=||	=||	=||
=||:	=||:	=||:	=||:	=||:	=||:	=||:	=||:	=||:	=||:
*	*bis	*bis	*bis	*bis	*bis	*bis	*bis	*bis	*bis
!!LO:TX:a:t=Solo - reprise par le Choeur
4dd	N'a-	D'al-	De	Tous	En	On	C'est	Sur	Du
=9	=9	=9	=9	=9	=9	=9	=9	=9	=9
8.g	-vient	-ler	"ba-	les	frap-	frise	tou-	mon	moins
16a	que	voir	-lier"	gar-	-pant	un	-jours	ac-	dans
8g	moi	les	la	-çons	du	ri-	la	-cor-	notr'
8f#	d'en-	gar-	mai-	y	ta-	-go-	sai-	-dé-	can-
=10	=10	=10	=10	=10	=10	=10	=10	=10	=10
8e	-fant,	-çons,	-son,	vont,	-lon,	-don,	-son,	-on,	-ton,
8r	.	.	.	.	.	.	.	.	.
4a	N'a-	D'al-	De	Tous	En	On	C'est	Sur	Du
=11	=11	=11	=11	=11	=11	=11	=11	=11	=11
8f#	-vient	-ler	"ba-	les	frap-	frise	tou-	mon	moins
8a	que	voir	-lier"	gar-	-pant	un	-jours	ac-	dans
8cc	moi	les	la	-çons	du	ri-	la	-cor-	notr'
8b	d'en-	gar-	mai-	y	ta-	-go-	sai-	-dé-	can-
=12	=12	=12	=12	=12	=12	=12	=12	=12	=12
4g	-fant.	-çons.	-son.	vont.	-lon.	-don.	-son.	-on.	-ton.
*	*Xbis	*Xbis	*Xbis	*Xbis	*Xbis	*Xbis	*Xbis	*Xbis	*Xbis
=:||	=:||	=:||	=:||	=:||	=:||	=:||	=:||	=:||	=:||
*-	*-	*-	*-	*-	*-	*-	*-	*-	*-
!!!EED: Isaac Howie
!!!EEV: 2025/June/07
